X:258
T:Take the "A" Train
T:AABA
Z:Jack Campin, http://www.campin.me.uk/
F:Jack Campin's Nine-Note Tunebook
% last edit 03-02-2013
C:Billy Strayhorn
N:this needs half-holing
M:4/4
L:1/8
Q:1/2=80
P:AABA
K:C
P:A
E8-      |E3c   E2 A2| cE3- E4-|E8    |
F8       |F^FGc ED_DA|_AC3- C4-|C4 z4||
P:B
F2<A2- A4|cD3   F2 A2| cF3- F4-|F8    |
F2<A2- A4|cD3   F2 A2| cF3- F4-|F4 E4||

